X:1
T:Title
%%score { ( 1 3 ) | 2 }
L:1/8
M:3/4
K:G
V:1 treble nm="Grand Piano"
V:3 treble 
V:2 bass 
V:1
 z2 z2[Q:1/4=100] D2 | D>G G3 A | G>F F3 D | FG [FA]3 [Ac] |[M:2/4] B4 |[M:1/4] D2 | %6
[M:3/4] D>G G3 A | G>F F3 G | A3 G B>A |[M:2/4] G4 |[M:1/4] B2 |[M:3/4] [Ac]>[Bd] [Ac]3 [GB] | %12
 [FA]>[=F^G] [^FA]3 [GB] | [Ac]3 [ce] [Bd][Ac] |[M:3/8] B3 | BB>c |[M:3/4] d3 B [FA]B | %17
 [Ec]3 [CE] [EG]>[EA] | [DB]4 [CDA]2 |[M:2/4] [B,DG]4 |[M:1/4] B2 |[M:3/4] d>e d3 B | c4 z2 | %23
 [Ac]>[Bd] [Ac]3 [FA] |[M:7/16] B/-B/-B/-B-<B |[M:3/8] BB>c |[M:3/4] d3 B [FA]B | %27
 [Ec]3 [CE] [EG]>[EA] | [DB]4 [CDA]2 |[M:6/4] .[B,DG]6 z6 |] %30
V:2
 z2 z2 [G,B,]2 | [G,B,]>[G,B,D] [G,B,D]3 [G,B,D] | [D,CD]>[D,CD] [D,CD]3 [D,F,] | %3
 [D,A,D][D,B,D] [D,D]3 [D,D] |[M:2/4][K:treble] [G,DG]4 |[M:1/4] [G,B,]2 | %6
[M:3/4] [G,B,]>[G,B,D] [G,B,D]3[K:bass] [G,B,D] | [D,CD]>[D,CD] [D,CD]3 [D,B,D] | %8
 [D,CD]3 [D,B,D] [D,D]>[D,CD] |[M:2/4][K:treble] [G,B,D]4 |[M:1/4] [G,DG]2 | %11
[M:3/4][K:bass] [D,D]>[D,D] [D,D]3 [D,D] | [D,D]>[D,D] [D,D]3 [D,D] | [D,D]3 [D,D] [D,D][D,D] | %14
[M:3/8][K:treble] [G,DG]3 | [G,DG][G,DG]>[G,A,G] |[M:3/4] [G,B,G]3 [G,DG][K:bass] [D,D][G,=F] | %17
 [C,G,]3 [C,G,] [C,G,]>[C,G,] | [D,G,]4 D,2 |[M:2/4] G,,4 |[M:1/4][K:treble] [G,DG]2 | %21
[M:3/4] [G,B,G]>[G,CG] [G,B,G]3 [G,DG] | [D,D][D,A,] [D,A,]2 [D,F,]2 | [D,D]>[D,D] [D,D]3 [D,D] | %24
[M:7/16][K:treble] [G,DG][G,D][G,D]3/2 |[M:3/8] [G,DG][G,DG]>[G,A,G] | %26
[M:3/4] [G,B,G]3 [G,DG][K:bass] [D,D][G,=F] | [C,G,]3 [C,G,] [C,G,]>[C,G,] | [D,G,]4 D,2 | %29
[M:6/4] .G,,6 z6 |] %30
V:3
 x6 | x6 | x6 | x6 |[M:2/4] x4 |[M:1/4] x2 |[M:3/4] x6 | x6 | x6 |[M:2/4] x4 |[M:1/4] x2 | %11
[M:3/4] x6 | x6 | x6 |[M:3/8] x3 | x3 |[M:3/4] x6 | x6 | x6 |[M:2/4] x4 |[M:1/4] x2 |[M:3/4] x6 | %22
 FF F2 D2 | x6 |[M:7/16] z GG3/2 |[M:3/8] x3 |[M:3/4] x6 | x6 | x6 |[M:6/4] x12 |] %30

